apps/service-portal/src/assets/images/education.svg

<svg width="51" height="73" viewBox="0 0 51 73" fill="none" xmlns="http://www.w3.org/2000/svg">
<path d="M38.5177 56.0609C36.2986 56.0609 34.4955 54.2548 34.4955 52.0387V48.063C34.4955 47.8216 34.6903 47.6268 34.9317 47.6268C35.1731 47.6268 35.368 47.8216 35.368 48.063V52.0387C35.368 53.775 36.7814 55.1884 38.5177 55.1884C40.254 55.1884 41.6674 53.775 41.6674 52.0387V38.864C41.6674 38.6226 41.8623 38.4277 42.1036 38.4277C42.345 38.4277 42.5399 38.6226 42.5399 38.864V52.0387C42.5399 54.2548 40.7338 56.0609 38.5177 56.0609Z" fill="#6A2EA0"/>
<path d="M42.1036 24.3768C41.8622 24.3768 41.6674 24.1819 41.6674 23.9406V9.7683C41.6674 7.54925 43.4734 5.74609 45.6896 5.74609H46.4981C48.7171 5.74609 50.5203 7.55216 50.5203 9.7683V11.6529C50.5203 11.8943 50.3254 12.0891 50.084 12.0891C49.8426 12.0891 49.6478 11.8943 49.6478 11.6529V9.7683C49.6478 8.03203 48.2343 6.61859 46.4981 6.61859H45.6896C43.9533 6.61859 42.5399 8.03203 42.5399 9.7683V23.9406C42.5399 24.1819 42.345 24.3768 42.1036 24.3768Z" fill="#6A2EA0"/>
<path d="M11.2581 48.4984C11.0168 48.4984 10.8219 48.3036 10.8219 48.0622V9.7683C10.8219 7.54925 12.628 5.74609 14.8441 5.74609H15.6526C15.894 5.74609 16.0889 5.94095 16.0889 6.18234C16.0889 6.42373 15.894 6.61859 15.6526 6.61859H14.8441C13.1078 6.61859 11.6944 8.03203 11.6944 9.7683V48.0622C11.6944 48.3036 11.4995 48.4984 11.2581 48.4984Z" fill="#6A2EA0"/>
<path d="M45.6897 6.61859H15.6555C15.4141 6.61859 15.2192 6.42373 15.2192 6.18234C15.2192 5.94095 15.4141 5.74609 15.6555 5.74609H45.6897C45.9311 5.74609 46.126 5.94095 46.126 6.18234C46.126 6.42373 45.9311 6.61859 45.6897 6.61859Z" fill="#6A2EA0"/>
<path d="M25.3314 11.1591H6.38074V1.04688H25.3314V11.1591ZM42.2752 25.8374C39.7014 25.8374 37.6074 27.9314 37.6074 30.5053C37.6074 33.0791 39.7014 35.1731 42.2752 35.1731C44.8491 35.1731 46.9431 33.0791 46.9431 30.5053C46.9431 27.9314 44.8491 25.8374 42.2752 25.8374ZM49.9823 30.7205C49.9823 34.0912 47.8301 36.9588 44.8258 38.0291V46.2771L42.2433 44.439L39.7072 46.2771V38.0582C36.6622 37.0112 34.4722 34.1232 34.4722 30.7234C34.4722 26.4394 37.9448 22.9669 42.2287 22.9669C46.5127 22.9669 49.9823 26.4394 49.9823 30.7205ZM47.8156 30.5053C47.8156 27.4486 45.329 24.9649 42.2752 24.9649C39.2215 24.9649 36.7349 27.4515 36.7349 30.5053C36.7349 33.5619 39.2215 36.0456 42.2752 36.0456C45.329 36.0456 47.8156 33.5619 47.8156 30.5053Z" fill="url(#paint0_linear)"/>
<path d="M4.10075 23.3856C5.06127 23.3856 5.83992 22.6069 5.83992 21.6464C5.83992 20.6859 5.06127 19.9072 4.10075 19.9072C3.14023 19.9072 2.36157 20.6859 2.36157 21.6464C2.36157 22.6069 3.14023 23.3856 4.10075 23.3856Z" fill="#0061FF"/>
<path d="M46.3703 72.536C47.3308 72.536 48.1095 71.7573 48.1095 70.7968C48.1095 69.8363 47.3308 69.0576 46.3703 69.0576C45.4098 69.0576 44.6311 69.8363 44.6311 70.7968C44.6311 71.7573 45.4098 72.536 46.3703 72.536Z" fill="#0061FF"/>
<path d="M7.67211 56.0601C5.45306 56.0601 3.6499 54.254 3.6499 52.0379V48.0622C3.6499 47.8208 3.84476 47.626 4.08615 47.626H31.6367C31.8781 47.626 32.0729 47.8208 32.0729 48.0622C32.0729 48.3036 31.8781 48.4985 31.6367 48.4985H4.5224V52.0379C4.5224 53.7742 5.93584 55.1876 7.67211 55.1876C7.9135 55.1876 8.10836 55.3825 8.10836 55.6239C8.10836 55.8652 7.9135 56.0601 7.67211 56.0601Z" fill="#6A2EA0"/>
<path d="M38.4422 56.06H11.2581C11.0168 56.06 10.8219 55.8651 10.8219 55.6237C10.8219 55.3824 11.0168 55.1875 11.2581 55.1875H38.4422C38.6836 55.1875 38.8785 55.3824 38.8785 55.6237C38.8785 55.8651 38.6836 56.06 38.4422 56.06Z" fill="#6A2EA0"/>
<path d="M30.4878 1.48284H0.706634C0.465243 1.48284 0.270386 1.28799 0.270386 1.0466C0.270386 0.805208 0.465243 0.610352 0.706634 0.610352H30.4878C30.7292 0.610352 30.9241 0.805208 30.9241 1.0466C30.9241 1.28799 30.7263 1.48284 30.4878 1.48284Z" fill="#6A2EA0"/>
<path d="M4.10067 15.3933C3.85928 15.3933 3.66443 15.1985 3.66443 14.9571V1.0466C3.66443 0.805209 3.85928 0.610352 4.10067 0.610352C4.34206 0.610352 4.53692 0.805209 4.53692 1.0466V14.9571C4.53692 15.1985 4.34206 15.3933 4.10067 15.3933Z" fill="#6A2EA0"/>
<path d="M25.3952 22.4487H11.4353C11.1939 22.4487 10.999 22.2538 10.999 22.0124C10.999 21.771 11.1939 21.5762 11.4353 21.5762H25.3952C25.6366 21.5762 25.8315 21.771 25.8315 22.0124C25.8315 22.2538 25.6366 22.4487 25.3952 22.4487Z" fill="#6A2EA0"/>
<path d="M20.1922 29.4867H11.4353C11.1939 29.4867 10.999 29.2919 10.999 29.0505C10.999 28.8091 11.1939 28.6143 11.4353 28.6143H20.1922C20.4336 28.6143 20.6285 28.8091 20.6285 29.0505C20.6285 29.2919 20.4336 29.4867 20.1922 29.4867Z" fill="#6A2EA0"/>
<path d="M29.2836 36.2319H11.4353C11.1939 36.2319 10.999 36.037 10.999 35.7956C10.999 35.5542 11.1939 35.3594 11.4353 35.3594H29.2807C29.5221 35.3594 29.717 35.5542 29.717 35.7956C29.717 36.037 29.525 36.2319 29.2836 36.2319Z" fill="#6A2EA0"/>
<path d="M20.361 6.9505C20.1197 6.9505 19.9248 6.75564 19.9248 6.51425V1.57883C19.9248 1.33744 20.1197 1.14258 20.361 1.14258C20.6024 1.14258 20.7973 1.33744 20.7973 1.57883V6.51425C20.7973 6.75564 20.5995 6.9505 20.361 6.9505Z" fill="#6A2EA0"/>
<path d="M42.1035 32.4155C41.9872 32.4155 41.8738 32.369 41.7924 32.2847L39.3552 29.8039C39.1865 29.6323 39.1894 29.356 39.361 29.1873C39.5326 29.0186 39.8089 29.0215 39.9776 29.1931L42.0338 31.2871L46.0036 25.2058C46.1345 25.0051 46.405 24.947 46.6085 25.0778C46.8092 25.2087 46.8674 25.4792 46.7365 25.6828L42.47 32.2178C42.3973 32.3283 42.278 32.401 42.1472 32.4126C42.1326 32.4155 42.1181 32.4155 42.1035 32.4155Z" fill="#6A2EA0"/>
<defs>
<linearGradient id="paint0_linear" x1="6.38135" y1="23.6612" x2="49.9837" y2="23.6612" gradientUnits="userSpaceOnUse">
<stop stop-color="#4C90FF"/>
<stop offset="0.3921" stop-color="#9077D1"/>
<stop offset="1" stop-color="#FF4C84"/>
</linearGradient>
</defs>
</svg>

<svg width="51" height="73" fill="none" xmlns="http://www.w3.org/2000/svg"><path d="M38.518 56.06a4.027 4.027 0 0 1-4.023-4.021v-3.976a.436.436 0 1 1 .873 0v3.976a3.154 3.154 0 0 0 3.15 3.15 3.154 3.154 0 0 0 3.15-3.15V38.864a.436.436 0 1 1 .872 0v13.175a4.029 4.029 0 0 1-4.022 4.022ZM42.104 24.377a.436.436 0 0 1-.437-.436V9.768a4.027 4.027 0 0 1 4.023-4.022h.808a4.027 4.027 0 0 1 4.022 4.022v1.885a.436.436 0 1 1-.872 0V9.768a3.154 3.154 0 0 0-3.15-3.15h-.808a3.154 3.154 0 0 0-3.15 3.15v14.173a.436.436 0 0 1-.436.436ZM11.258 48.498a.436.436 0 0 1-.436-.436V9.768a4.027 4.027 0 0 1 4.022-4.022h.809a.436.436 0 1 1 0 .873h-.809a3.154 3.154 0 0 0-3.15 3.15v38.293a.436.436 0 0 1-.436.436Z" fill="#6A2EA0"/><path d="M45.69 6.619H15.656a.436.436 0 1 1 0-.873H45.69a.436.436 0 1 1 0 .873Z" fill="#6A2EA0"/><path d="M25.331 11.16H6.381V1.046h18.95v10.112Zm16.944 14.677a4.673 4.673 0 0 0-4.668 4.668 4.673 4.673 0 0 0 4.668 4.668 4.673 4.673 0 0 0 4.668-4.668 4.673 4.673 0 0 0-4.668-4.668Zm7.707 4.884a7.761 7.761 0 0 1-5.156 7.308v8.248l-2.583-1.838-2.536 1.838v-8.219a7.756 7.756 0 0 1 2.522-15.091 7.753 7.753 0 0 1 7.753 7.754Zm-2.166-.216a5.546 5.546 0 0 0-5.54-5.54 5.548 5.548 0 0 0-5.541 5.54 5.546 5.546 0 0 0 5.54 5.54 5.546 5.546 0 0 0 5.54-5.54Z" fill="url(#a)"/><path d="M4.1 23.386a1.74 1.74 0 1 0 0-3.479 1.74 1.74 0 0 0 0 3.479ZM46.37 72.536a1.74 1.74 0 1 0 0-3.478 1.74 1.74 0 0 0 0 3.478Z" fill="#0061FF"/><path d="M7.672 56.06a4.027 4.027 0 0 1-4.022-4.022v-3.976c0-.241.195-.436.436-.436h27.55a.436.436 0 1 1 0 .873H4.523v3.539a3.154 3.154 0 0 0 3.15 3.15.436.436 0 1 1 0 .872ZM38.442 56.06H11.258a.436.436 0 1 1 0-.873h27.184a.436.436 0 1 1 0 .873ZM30.488 1.483H.707a.436.436 0 1 1 0-.873h29.78a.436.436 0 1 1 0 .873Z" fill="#6A2EA0"/><path d="M4.1 15.393a.436.436 0 0 1-.436-.436V1.047a.436.436 0 1 1 .873 0v13.91a.436.436 0 0 1-.436.436ZM25.395 22.449h-13.96a.436.436 0 1 1 0-.873h13.96a.436.436 0 1 1 0 .873ZM20.192 29.487h-8.757a.436.436 0 1 1 0-.873h8.757a.436.436 0 1 1 0 .873ZM29.284 36.232H11.435a.436.436 0 1 1 0-.873h17.846a.436.436 0 0 1 .003.873ZM20.361 6.95a.436.436 0 0 1-.436-.436V1.58a.436.436 0 1 1 .872 0v4.935a.438.438 0 0 1-.436.436ZM42.103 32.416a.433.433 0 0 1-.31-.131l-2.438-2.481a.436.436 0 0 1 .623-.61l2.056 2.093 3.97-6.081a.44.44 0 0 1 .605-.128c.2.13.258.401.127.605l-4.266 6.535a.435.435 0 0 1-.323.195c-.014.003-.029.003-.044.003Z" fill="#6A2EA0"/><defs><linearGradient id="a" x1="6.381" y1="23.661" x2="49.984" y2="23.661" gradientUnits="userSpaceOnUse"><stop stop-color="#4C90FF"/><stop offset=".392" stop-color="#9077D1"/><stop offset="1" stop-color="#FF4C84"/></linearGradient></defs></svg>
